_site/images/features-page/circle-cancel-white.svg

<svg fill="none" height="44" viewBox="0 0 44 44" width="44" xmlns="http://www.w3.org/2000/svg"><circle cx="22" cy="22" r="21" stroke="#f9fcff"/><path clip-rule="evenodd" d="m29.0701 14.9301c-2.5108-2.5996-6.2288-3.6421-9.7251-2.727-3.4963.9152-6.2267 3.6456-7.1419 7.1419-.9151 3.4963.1274 7.2143 2.727 9.7251 2.5107 2.5995 6.2288 3.6421 9.7251 2.727 3.4963-.9152 6.2267-3.6457 7.1419-7.1419.9151-3.4963-.1275-7.2144-2.727-9.7251zm-3.36 3.36c-.1878-.1894-.4434-.2958-.71-.2958-.2667 0-.5223.1064-.71.2958l-2.29 2.3-2.29-2.3c-.3922-.3922-1.0279-.3922-1.42 0-.3922.3921-.3922 1.0278 0 1.42l2.3 2.29-2.3 2.29c-.1894.1877-.2958.4433-.2958.71 0 .2666.1064.5222.2958.71.1877.1893.4433.2958.71.2958.2666 0 .5222-.1065.71-.2958l2.29-2.3 2.29 2.3c.1877.1893.4433.2958.71.2958.2666 0 .5222-.1065.71-.2958.1893-.1878.2958-.4434.2958-.71 0-.2667-.1065-.5223-.2958-.71l-2.3-2.29 2.3-2.29c.1893-.1878.2958-.4434.2958-.71 0-.2667-.1065-.5223-.2958-.71zm-8.1505 10.3708c3.1745 2.1183 7.4034 1.6993 10.1005-1.0008 1.5046-1.4984 2.3472-3.5365 2.34-5.66-.003-3.8164-2.7014-7.0993-6.445-7.8411s-7.49 1.264-8.9481 4.7909-.2219 7.5926 2.9526 9.711z" fill="#f9fcff" fill-rule="evenodd"/></svg>

<svg width="44" height="44" viewBox="0 0 44 44" fill="none" xmlns="http://www.w3.org/2000/svg">
<circle cx="22" cy="22" r="21" stroke="#F9FCFF"/>
<path fill-rule="evenodd" clip-rule="evenodd" d="M29.0701 14.9301C26.5593 12.3305 22.8413 11.288 19.345 12.2031C15.8487 13.1183 13.1183 15.8487 12.2031 19.345C11.288 22.8413 12.3305 26.5593 14.9301 29.0701C17.4408 31.6696 21.1589 32.7122 24.6552 31.7971C28.1515 30.8819 30.8819 28.1514 31.7971 24.6552C32.7122 21.1589 31.6696 17.4408 29.0701 14.9301ZM25.7101 18.2901C25.5223 18.1007 25.2667 17.9943 25.0001 17.9943C24.7334 17.9943 24.4778 18.1007 24.2901 18.2901L22.0001 20.5901L19.7101 18.2901C19.3179 17.8979 18.6822 17.8979 18.2901 18.2901C17.8979 18.6822 17.8979 19.3179 18.2901 19.7101L20.5901 22.0001L18.2901 24.2901C18.1007 24.4778 17.9943 24.7334 17.9943 25.0001C17.9943 25.2667 18.1007 25.5223 18.2901 25.7101C18.4778 25.8994 18.7334 26.0059 19.0001 26.0059C19.2667 26.0059 19.5223 25.8994 19.7101 25.7101L22.0001 23.4101L24.2901 25.7101C24.4778 25.8994 24.7334 26.0059 25.0001 26.0059C25.2667 26.0059 25.5223 25.8994 25.7101 25.7101C25.8994 25.5223 26.0059 25.2667 26.0059 25.0001C26.0059 24.7334 25.8994 24.4778 25.7101 24.2901L23.4101 22.0001L25.7101 19.7101C25.8994 19.5223 26.0059 19.2667 26.0059 19.0001C26.0059 18.7334 25.8994 18.4778 25.7101 18.2901ZM17.5596 28.6609C20.7341 30.7792 24.963 30.3602 27.6601 27.6601C29.1647 26.1617 30.0073 24.1236 30.0001 22.0001C29.9971 18.1837 27.2987 14.9008 23.5551 14.159C19.8115 13.4172 16.0651 15.423 14.607 18.9499C13.1489 22.4768 14.3851 26.5425 17.5596 28.6609Z" fill="#F9FCFF"/>
</svg>
